X: 2468
T: Ballybrit Dip
R: reel
M: 4/4
K: Gmajor
|:"G"DGGF GABd|"Am"c2 AG "D"FGAF|"G"DGGF GABd|"Am"c2 (3ABc "D"d4|
"G"DGGF GABd|"Am"c2 AG "D"FAdc|"G"B2 ag "D"fdcA|"D"AGFA "G"G2 dc:|
|:"G"(3Bcd gd "D"cAdc|"G"B2 GA Bcdc|"G"(3Bcd gf "D"d2 ag|"G"f2 ge fdcA|
"G"(3Bcd gd "D"cAdc|"Em"B2 GA BcdB|"Am"c2 (3ABc "D"d3c|"G"(3Bcd "D"AF "G"G4:|

